X:0809
T:Fanny's Fancy.
S:Aird v5 p4
M:2/4
L:1/8
Q:1/4=100
I: :: :: :|
N:is there a missing bar 3? (e.g. repeat of bar 1)
N:see cross-ref in Gore - but it seems to be wrong
Z:Jack Campin * www.campin.me.uk * 2009
K:D
F>A d2|c>e g2|  e/d/c/B/ AG|\
F>A d2|c>e g2|(3fga      Ac|d2 D2:|
fd (3fga|ec (3efg|gd cd|e/d/c/B/ Ag |\
fd (3fga|ec (3efg|fd Ac|d2       D2:|
FDGD|AFBG|gfed    |ceAg  |\
fdge|afbg|f/g/a Ac|d2 D2:|

